packages/icons/src/run-tests-ci-step-inverse.svg

<svg viewBox="0 0 40 41" xmlns="http://www.w3.org/2000/svg"><path clip-rule="evenodd" d="m3 7.91403c0-.55228.44771-1 1-1h32c.5523 0 1 .44772 1 1v24.99997c0 .5523-.4477 1-1 1h-32c-.55229 0-1-.4477-1-1zm8.0444 24.99997h2.75v-7.1925c0-.0691-.0559-.125-.125-.125h-2.5c-.069 0-.125.0559-.125.125zm3.75 0v-7.1925c0-.6214-.5036-1.125-1.125-1.125h-2.5c-.6213 0-1.125.5036-1.125 1.125v7.1925h-6.0444v-21.2295h32v21.2295h-6.2306v-16.082c0-.6213-.5036-1.125-1.125-1.125h-2.5c-.6213 0-1.125.5037-1.125 1.125v16.082h-2.7534v-11.1107c0-.6213-.5036-1.125-1.125-1.125h-2.5c-.6213 0-1.125.5037-1.125 1.125v11.1107zm3.7216 0h2.75v-11.1107c0-.069-.0559-.125-.125-.125h-2.5c-.069 0-.125.056-.125.125zm7.5034 0h2.75v-16.082c0-.069-.0559-.125-.125-.125h-2.5c-.069 0-.125.056-.125.125zm9.9806-22.2295v-2.77047h-32v2.77047z" fill="#fff" fill-rule="evenodd"/></svg>

<svg viewBox="0 0 40 41" xmlns="http://www.w3.org/2000/svg">
<path fill-rule="evenodd" clip-rule="evenodd" d="M3 7.91403C3 7.36175 3.44771 6.91403 4 6.91403H36C36.5523 6.91403 37 7.36175 37 7.91403V32.914C37 33.4663 36.5523 33.914 36 33.914H4C3.44771 33.914 3 33.4663 3 32.914V7.91403ZM11.0444 32.914H13.7944V25.7215C13.7944 25.6524 13.7385 25.5965 13.6694 25.5965H11.1694C11.1004 25.5965 11.0444 25.6524 11.0444 25.7215V32.914ZM14.7944 32.914V25.7215C14.7944 25.1001 14.2908 24.5965 13.6694 24.5965H11.1694C10.5481 24.5965 10.0444 25.1001 10.0444 25.7215V32.914H4V11.6845H36V32.914H29.7694V16.832C29.7694 16.2107 29.2658 15.707 28.6444 15.707H26.1444C25.5231 15.707 25.0194 16.2107 25.0194 16.832V32.914H22.266V21.8033C22.266 21.182 21.7624 20.6783 21.141 20.6783H18.641C18.0197 20.6783 17.516 21.182 17.516 21.8033V32.914H14.7944ZM18.516 32.914H21.266V21.8033C21.266 21.7343 21.2101 21.6783 21.141 21.6783H18.641C18.572 21.6783 18.516 21.7343 18.516 21.8033V32.914ZM26.0194 32.914H28.7694V16.832C28.7694 16.763 28.7135 16.707 28.6444 16.707H26.1444C26.0754 16.707 26.0194 16.763 26.0194 16.832V32.914ZM36 10.6845V7.91403L4 7.91403V10.6845H36Z" fill="white"/>
</svg>
